X: 305691
M: 2/4
L: 1/16
K: Em
E2G2B2e2 | g2gf e2g2 | f2^ab f2ab | f3dB2 B,2 |\
E2G2B2e2 | g2gf e2g2 | f2^ab B2^d2 | e2g2e2 H|]
d2 |\
g4 d2b2 | g4 d2b2 | c'2a2b2g2 | agfe d2ef |\
g4 d2b2 | g4 d2b2 | c'2a2f2a2 | g2b2"^D.C."g2 |]


